public/assets/img/Vector6.svg

<svg width="500" height="500" viewBox="0 0 98 82" fill="none" xmlns="http://www.w3.org/2000/svg">
<rect y="43.5116" width="29.5641" height="38.488" fill="#E62129"/>
<mask id="mask0_407_2139" style="mask-type:alpha" maskUnits="userSpaceOnUse" x="0" y="43" width="30" height="39">
<rect y="43.5116" width="29.5641" height="38.488" fill="#C4C4C4"/>
</mask>
<g mask="url(#mask0_407_2139)">
<ellipse cx="15.1004" cy="69.473" rx="7.45965" ry="7.48552" fill="#F4F5F5" stroke="#F4F5F5" stroke-linecap="round" stroke-linejoin="round"/>
<path fill-rule="evenodd" clip-rule="evenodd" d="M2.95706 81.8871C2.95505 81.3609 3.07233 80.8411 3.30003 80.3671C4.01455 78.9331 6.02952 78.1731 7.70151 77.8289C8.90735 77.5707 10.1298 77.3982 11.3599 77.3127C13.6372 77.1119 15.9277 77.1119 18.205 77.3127C19.435 77.3992 20.6574 77.5717 21.8634 77.8289C23.5354 78.1731 25.5504 78.8614 26.2649 80.3671C26.7228 81.3334 26.7228 82.4552 26.2649 83.4215C25.5504 84.9272 23.5354 85.6156 21.8634 85.9454C20.659 86.2143 19.4361 86.3917 18.205 86.476C16.3515 86.6337 14.4893 86.6624 12.6317 86.562C12.203 86.562 11.7886 86.562 11.3599 86.476C10.1335 86.3927 8.91522 86.2153 7.7158 85.9454C6.02952 85.6156 4.02885 84.9272 3.30003 83.4215C3.0735 82.942 2.95633 82.4178 2.95706 81.8871Z" fill="#F4F5F5" stroke="#F4F5F5" stroke-linecap="round" stroke-linejoin="round"/>
</g>
<rect y="0.610016" width="29.5641" height="38.488" fill="#E62129"/>
<mask id="mask1_407_2139" style="mask-type:alpha" maskUnits="userSpaceOnUse" x="0" y="0" width="30" height="40">
<rect y="0.610016" width="29.5641" height="38.488" fill="#C4C4C4"/>
</mask>
<g mask="url(#mask1_407_2139)">
<ellipse cx="15.1004" cy="26.5708" rx="7.45965" ry="7.48552" fill="#F4F5F5" stroke="#F4F5F5" stroke-linecap="round" stroke-linejoin="round"/>
<path fill-rule="evenodd" clip-rule="evenodd" d="M2.95706 38.985C2.95505 38.4587 3.07233 37.9389 3.30003 37.4649C4.01455 36.0309 6.02952 35.2709 7.70151 34.9267C8.90735 34.6685 10.1298 34.496 11.3599 34.4105C13.6372 34.2097 15.9277 34.2097 18.205 34.4105C19.435 34.497 20.6574 34.6695 21.8634 34.9267C23.5354 35.2709 25.5504 35.9592 26.2649 37.4649C26.7228 38.4312 26.7228 39.553 26.2649 40.5193C25.5504 42.0251 23.5354 42.7134 21.8634 43.0432C20.659 43.3121 19.4361 43.4895 18.205 43.5738C16.3515 43.7315 14.4893 43.7602 12.6317 43.6598C12.203 43.6598 11.7886 43.6598 11.3599 43.5738C10.1335 43.4905 8.91522 43.3131 7.7158 43.0432C6.02952 42.7134 4.02885 42.0251 3.30003 40.5193C3.0735 40.0398 2.95633 39.5156 2.95706 38.985Z" fill="#F4F5F5" stroke="#F4F5F5" stroke-linecap="round" stroke-linejoin="round"/>
</g>
<rect x="34.2041" y="0.609924" width="29.5641" height="38.488" fill="#FF9500"/>
<mask id="mask2_407_2139" style="mask-type:alpha" maskUnits="userSpaceOnUse" x="34" y="0" width="30" height="40">
<rect x="34.2041" y="0.609924" width="29.5641" height="38.488" fill="#C4C4C4"/>
</mask>
<g mask="url(#mask2_407_2139)">
<ellipse cx="49.3045" cy="26.5708" rx="7.45965" ry="7.48552" fill="#F4F5F5" stroke="#F4F5F5" stroke-linecap="round" stroke-linejoin="round"/>
<path fill-rule="evenodd" clip-rule="evenodd" d="M37.1612 38.9849C37.1592 38.4586 37.2764 37.9389 37.5041 37.4648C38.2187 36.0308 40.2336 35.2708 41.9056 34.9266C43.1114 34.6684 44.3339 34.4959 45.564 34.4104C47.8413 34.2096 50.1318 34.2096 52.4091 34.4104C53.6391 34.4969 54.8615 34.6694 56.0675 34.9266C57.7395 35.2708 59.7545 35.9591 60.469 37.4648C60.9269 38.4311 60.9269 39.553 60.469 40.5193C59.7545 42.025 57.7395 42.7133 56.0675 43.0431C54.8631 43.312 53.6402 43.4894 52.4091 43.5737C50.5556 43.7314 48.6934 43.7601 46.8358 43.6597C46.4071 43.6597 45.9927 43.6597 45.564 43.5737C44.3376 43.4904 43.1193 43.313 41.9199 43.0431C40.2336 42.7133 38.2329 42.025 37.5041 40.5193C37.2776 40.0397 37.1604 39.5155 37.1612 38.9849Z" fill="#F4F5F5" stroke="#F4F5F5" stroke-linecap="round" stroke-linejoin="round"/>
</g>
<rect x="68.4357" y="0.609924" width="29.5641" height="38.488" fill="#E62129"/>
<mask id="mask3_407_2139" style="mask-type:alpha" maskUnits="userSpaceOnUse" x="68" y="0" width="30" height="40">
<rect x="68.4357" y="0.609924" width="29.5641" height="38.488" fill="#C4C4C4"/>
</mask>
<g mask="url(#mask3_407_2139)">
<ellipse cx="83.537" cy="26.5708" rx="7.45965" ry="7.48552" fill="#F4F5F5" stroke="#F4F5F5" stroke-linecap="round" stroke-linejoin="round"/>
<path fill-rule="evenodd" clip-rule="evenodd" d="M71.3937 38.9849C71.3917 38.4586 71.509 37.9389 71.7367 37.4648C72.4512 36.0308 74.4662 35.2708 76.1382 34.9266C77.344 34.6684 78.5665 34.4959 79.7965 34.4104C82.0739 34.2096 84.3643 34.2096 86.6417 34.4104C87.8716 34.4969 89.094 34.6694 90.3001 34.9266C91.972 35.2708 93.987 35.9591 94.7015 37.4648C95.1594 38.4311 95.1594 39.553 94.7015 40.5193C93.987 42.025 91.972 42.7133 90.3001 43.0431C89.0956 43.312 87.8727 43.4894 86.6417 43.5737C84.7881 43.7314 82.9259 43.7601 81.0684 43.6597C80.6397 43.6597 80.2252 43.6597 79.7965 43.5737C78.5701 43.4904 77.3519 43.313 76.1524 43.0431C74.4662 42.7133 72.4655 42.025 71.7367 40.5193C71.5101 40.0397 71.393 39.5155 71.3937 38.9849Z" fill="#F4F5F5" stroke="#F4F5F5" stroke-linecap="round" stroke-linejoin="round"/>
</g>
<rect x="34.2041" y="43.5116" width="29.5641" height="38.488" fill="#E62129"/>
<mask id="mask4_407_2139" style="mask-type:alpha" maskUnits="userSpaceOnUse" x="34" y="43" width="30" height="39">
<rect x="34.2041" y="43.5116" width="29.5641" height="38.488" fill="#C4C4C4"/>
</mask>
<g mask="url(#mask4_407_2139)">
<ellipse cx="49.3045" cy="69.473" rx="7.45965" ry="7.48552" fill="#F4F5F5" stroke="#F4F5F5" stroke-linecap="round" stroke-linejoin="round"/>
<path fill-rule="evenodd" clip-rule="evenodd" d="M37.1612 81.8871C37.1592 81.3609 37.2764 80.8411 37.5041 80.3671C38.2187 78.9331 40.2336 78.1731 41.9056 77.8289C43.1114 77.5707 44.3339 77.3982 45.564 77.3127C47.8413 77.1119 50.1318 77.1119 52.4091 77.3127C53.6391 77.3992 54.8615 77.5717 56.0675 77.8289C57.7395 78.1731 59.7545 78.8614 60.469 80.3671C60.9269 81.3334 60.9269 82.4552 60.469 83.4215C59.7545 84.9272 57.7395 85.6156 56.0675 85.9454C54.8631 86.2143 53.6402 86.3917 52.4091 86.476C50.5556 86.6337 48.6934 86.6624 46.8358 86.562C46.4071 86.562 45.9927 86.562 45.564 86.476C44.3376 86.3927 43.1193 86.2153 41.9199 85.9454C40.2336 85.6156 38.2329 84.9272 37.5041 83.4215C37.2776 82.942 37.1604 82.4178 37.1612 81.8871Z" fill="#F4F5F5" stroke="#F4F5F5" stroke-linecap="round" stroke-linejoin="round"/>
</g>
<rect x="68.4357" y="43.5116" width="29.5641" height="38.488" fill="#E62129"/>
<mask id="mask5_407_2139" style="mask-type:alpha" maskUnits="userSpaceOnUse" x="68" y="43" width="30" height="39">
<rect x="68.4357" y="43.5116" width="29.5641" height="38.488" fill="#C4C4C4"/>
</mask>
<g mask="url(#mask5_407_2139)">
<ellipse cx="83.537" cy="69.473" rx="7.45965" ry="7.48552" fill="#F4F5F5" stroke="#F4F5F5" stroke-linecap="round" stroke-linejoin="round"/>
<path fill-rule="evenodd" clip-rule="evenodd" d="M71.3937 81.8871C71.3917 81.3609 71.509 80.8411 71.7367 80.3671C72.4512 78.9331 74.4662 78.1731 76.1382 77.8289C77.344 77.5707 78.5665 77.3982 79.7965 77.3127C82.0739 77.1119 84.3643 77.1119 86.6417 77.3127C87.8716 77.3992 89.094 77.5717 90.3001 77.8289C91.972 78.1731 93.987 78.8614 94.7015 80.3671C95.1594 81.3334 95.1594 82.4552 94.7015 83.4215C93.987 84.9272 91.972 85.6156 90.3001 85.9454C89.0956 86.2143 87.8727 86.3917 86.6417 86.476C84.7881 86.6337 82.9259 86.6624 81.0684 86.562C80.6397 86.562 80.2252 86.562 79.7965 86.476C78.5701 86.3927 77.3519 86.2153 76.1524 85.9454C74.4662 85.6156 72.4655 84.9272 71.7367 83.4215C71.5101 82.942 71.393 82.4178 71.3937 81.8871Z" fill="#F4F5F5" stroke="#F4F5F5" stroke-linecap="round" stroke-linejoin="round"/>
</g>
</svg>

<svg width="500" height="500" viewBox="0 0 98 82" fill="none" xmlns="http://www.w3.org/2000/svg"><path fill="#E62129" d="M0 43.512h29.564V82H0z"/><mask id="a" style="mask-type:alpha" maskUnits="userSpaceOnUse" x="0" y="43" width="30" height="39"><path fill="#C4C4C4" d="M0 43.512h29.564V82H0z"/></mask><g mask="url(#a)" fill="#F4F5F5" stroke="#F4F5F5" stroke-linecap="round" stroke-linejoin="round"><ellipse cx="15.1" cy="69.473" rx="7.46" ry="7.486"/><path fill-rule="evenodd" clip-rule="evenodd" d="M2.957 81.887a3.48 3.48 0 0 1 .343-1.52c.715-1.434 2.73-2.194 4.402-2.538a26.123 26.123 0 0 1 3.658-.516c2.277-.201 4.568-.201 6.845 0 1.23.086 2.452.259 3.658.516 1.672.344 3.687 1.032 4.402 2.538a3.567 3.567 0 0 1 0 3.054c-.715 1.506-2.73 2.195-4.402 2.524a24.457 24.457 0 0 1-3.658.531 40.169 40.169 0 0 1-5.573.086c-.429 0-.843 0-1.272-.086a24.01 24.01 0 0 1-3.644-.53c-1.686-.33-3.687-1.019-4.416-2.525a3.58 3.58 0 0 1-.343-1.534Z"/></g><path fill="#E62129" d="M0 .61h29.564v38.488H0z"/><mask id="b" style="mask-type:alpha" maskUnits="userSpaceOnUse" x="0" y="0" width="30" height="40"><path fill="#C4C4C4" d="M0 .61h29.564v38.488H0z"/></mask><g mask="url(#b)" fill="#F4F5F5" stroke="#F4F5F5" stroke-linecap="round" stroke-linejoin="round"><ellipse cx="15.1" cy="26.571" rx="7.46" ry="7.486"/><path fill-rule="evenodd" clip-rule="evenodd" d="M2.957 38.985a3.48 3.48 0 0 1 .343-1.52c.715-1.434 2.73-2.194 4.402-2.538a26.123 26.123 0 0 1 3.658-.517c2.277-.2 4.568-.2 6.845 0 1.23.087 2.452.26 3.658.517 1.672.344 3.687 1.032 4.402 2.538a3.567 3.567 0 0 1 0 3.054c-.715 1.506-2.73 2.194-4.402 2.524a24.457 24.457 0 0 1-3.658.53 40.169 40.169 0 0 1-5.573.087c-.429 0-.843 0-1.272-.086a24.01 24.01 0 0 1-3.644-.53c-1.686-.33-3.687-1.019-4.416-2.525a3.58 3.58 0 0 1-.343-1.534Z"/></g><path fill="#FF9500" d="M34.204.61h29.564v38.488H34.204z"/><mask id="c" style="mask-type:alpha" maskUnits="userSpaceOnUse" x="34" y="0" width="30" height="40"><path fill="#C4C4C4" d="M34.204.61h29.564v38.488H34.204z"/></mask><g mask="url(#c)" fill="#F4F5F5" stroke="#F4F5F5" stroke-linecap="round" stroke-linejoin="round"><ellipse cx="49.304" cy="26.571" rx="7.46" ry="7.486"/><path fill-rule="evenodd" clip-rule="evenodd" d="M37.161 38.985a3.48 3.48 0 0 1 .343-1.52c.715-1.434 2.73-2.194 4.402-2.538a26.123 26.123 0 0 1 3.658-.517c2.277-.2 4.568-.2 6.845 0 1.23.087 2.453.26 3.659.517 1.672.344 3.687 1.032 4.401 2.538a3.568 3.568 0 0 1 0 3.054c-.715 1.506-2.73 2.194-4.401 2.524a24.457 24.457 0 0 1-3.659.53 40.169 40.169 0 0 1-5.573.087c-.429 0-.843 0-1.272-.086a24.01 24.01 0 0 1-3.644-.53c-1.686-.33-3.687-1.019-4.416-2.525a3.58 3.58 0 0 1-.343-1.534Z"/></g><path fill="#E62129" d="M68.436.61H98v38.488H68.436z"/><mask id="d" style="mask-type:alpha" maskUnits="userSpaceOnUse" x="68" y="0" width="30" height="40"><path fill="#C4C4C4" d="M68.436.61H98v38.488H68.436z"/></mask><g mask="url(#d)" fill="#F4F5F5" stroke="#F4F5F5" stroke-linecap="round" stroke-linejoin="round"><ellipse cx="83.537" cy="26.571" rx="7.46" ry="7.486"/><path fill-rule="evenodd" clip-rule="evenodd" d="M71.394 38.985a3.48 3.48 0 0 1 .343-1.52c.714-1.434 2.73-2.194 4.401-2.538a26.123 26.123 0 0 1 3.658-.517c2.278-.2 4.568-.2 6.846 0 1.23.087 2.452.26 3.658.517 1.672.344 3.687 1.032 4.401 2.538a3.568 3.568 0 0 1 0 3.054c-.714 1.506-2.729 2.194-4.4 2.524a24.46 24.46 0 0 1-3.66.53 40.17 40.17 0 0 1-5.573.087c-.428 0-.843 0-1.272-.086a24.012 24.012 0 0 1-3.644-.53c-1.686-.33-3.686-1.019-4.415-2.525a3.58 3.58 0 0 1-.343-1.534Z"/></g><path fill="#E62129" d="M34.204 43.512h29.564V82H34.204z"/><mask id="e" style="mask-type:alpha" maskUnits="userSpaceOnUse" x="34" y="43" width="30" height="39"><path fill="#C4C4C4" d="M34.204 43.512h29.564V82H34.204z"/></mask><g mask="url(#e)" fill="#F4F5F5" stroke="#F4F5F5" stroke-linecap="round" stroke-linejoin="round"><ellipse cx="49.304" cy="69.473" rx="7.46" ry="7.486"/><path fill-rule="evenodd" clip-rule="evenodd" d="M37.161 81.887a3.48 3.48 0 0 1 .343-1.52c.715-1.434 2.73-2.194 4.402-2.538a26.123 26.123 0 0 1 3.658-.516c2.277-.201 4.568-.201 6.845 0 1.23.086 2.453.259 3.659.516 1.672.344 3.687 1.032 4.401 2.538a3.567 3.567 0 0 1 0 3.054c-.715 1.506-2.73 2.195-4.401 2.524a24.457 24.457 0 0 1-3.659.531 40.169 40.169 0 0 1-5.573.086c-.429 0-.843 0-1.272-.086a24.01 24.01 0 0 1-3.644-.53c-1.686-.33-3.687-1.019-4.416-2.525a3.58 3.58 0 0 1-.343-1.534Z"/></g><path fill="#E62129" d="M68.436 43.512H98V82H68.436z"/><mask id="f" style="mask-type:alpha" maskUnits="userSpaceOnUse" x="68" y="43" width="30" height="39"><path fill="#C4C4C4" d="M68.436 43.512H98V82H68.436z"/></mask><g mask="url(#f)" fill="#F4F5F5" stroke="#F4F5F5" stroke-linecap="round" stroke-linejoin="round"><ellipse cx="83.537" cy="69.473" rx="7.46" ry="7.486"/><path fill-rule="evenodd" clip-rule="evenodd" d="M71.394 81.887a3.48 3.48 0 0 1 .343-1.52c.714-1.434 2.73-2.194 4.401-2.538a26.123 26.123 0 0 1 3.658-.516c2.278-.201 4.568-.201 6.846 0 1.23.086 2.452.259 3.658.516 1.672.344 3.687 1.032 4.401 2.538a3.567 3.567 0 0 1 0 3.054c-.714 1.506-2.729 2.195-4.4 2.524a24.46 24.46 0 0 1-3.66.531 40.17 40.17 0 0 1-5.573.086c-.428 0-.843 0-1.272-.086a24.012 24.012 0 0 1-3.644-.53c-1.686-.33-3.686-1.019-4.415-2.525a3.58 3.58 0 0 1-.343-1.534Z"/></g></svg>
